X:87
T:Leitrim Fancy
Z: id:dc-jig-70
M:6/8
L:1/8
K:E Dorian
G3 F3|E2B BAB|G3 F3|DFA AFD|!
G3 F3|E2B BAB|GAB dBG|ABG FED:|!
GAB d2d|edB dBA|GAB dBG|ABG FED|!
GAB d2d|edB def|gfe dBG|ABG FED:|!

